sources/design/Outline/ഃ.svg

<svg:svg xmlns:cc="http://creativecommons.org/ns#" xmlns:dc="http://purl.org/dc/elements/1.1/" xmlns:inkscape="http://www.inkscape.org/namespaces/inkscape" xmlns:rdf="http://www.w3.org/1999/02/22-rdf-syntax-ns#" xmlns:sodipodi="http://sodipodi.sourceforge.net/DTD/sodipodi-0.dtd" xmlns:svg="http://www.w3.org/2000/svg" xml:space="preserve" width="1000" height="1000" version="1.1" style="clip-rule:evenodd;fill-rule:evenodd;image-rendering:optimizeQuality;shape-rendering:geometricPrecision;text-rendering:geometricPrecision" viewBox="0 0 1000 1000" id="svg10" sodipodi:docname="ഃ.svg" inkscape:version="1.1.1 (3bf5ae0d25, 2021-09-20)"><svg:metadata id="metadata14"><rdf:RDF><cc:Work rdf:about=""><dc:format>image/svg+xml</dc:format><dc:type rdf:resource="http://purl.org/dc/dcmitype/StillImage" /><dc:title /></cc:Work></rdf:RDF></svg:metadata><sodipodi:namedview pagecolor="#ffffff" bordercolor="#666666" borderopacity="1" objecttolerance="10" gridtolerance="10" guidetolerance="10" inkscape:pageopacity="0" inkscape:pageshadow="2" inkscape:window-width="1920" inkscape:window-height="1009" id="namedview12" showgrid="false" inkscape:zoom="0.84890884" inkscape:cx="198.4901" inkscape:cy="430.55271" inkscape:window-x="0" inkscape:window-y="0" inkscape:window-maximized="1" inkscape:current-layer="g874" showguides="true" inkscape:guide-bbox="true" inkscape:document-rotation="0" inkscape:pagecheckerboard="0"><sodipodi:guide position="0,1000" orientation="0,1" id="guide16" inkscape:label="" inkscape:locked="true" inkscape:color="rgb(0,0,255)" /><sodipodi:guide position="1763.3122,2036.1693" orientation="1000,0" id="guide18" /><sodipodi:guide position="0,200" orientation="0,1" id="guide20" inkscape:label="base" inkscape:locked="true" inkscape:color="rgb(0,0,255)" /><inkscape:grid type="xygrid" id="grid24" originx="-473.37552" originy="-489.69235" /><sodipodi:guide position="0,0" orientation="0,1" id="guide34" inkscape:label="bottom" inkscape:locked="true" inkscape:color="rgb(0,0,255)" /><sodipodi:guide position="225.05109,1693.3186" orientation="0,1" id="guide44" inkscape:label="" inkscape:locked="false" inkscape:color="rgb(0,0,255)" /><sodipodi:guide position="0,900" orientation="0,1" id="guide46" inkscape:label="" inkscape:locked="true" inkscape:color="rgb(0,0,255)" /><sodipodi:guide position="240.28117,591.11012" orientation="1,0" id="guide841" inkscape:label="width" />    </sodipodi:namedview>
 <svg:defs id="defs4"><inkscape:path-effect effect="spiro" id="path-effect909" is_visible="true" lpeversion="1" /><inkscape:path-effect effect="spiro" id="path-effect869" is_visible="true" lpeversion="1" /><inkscape:path-effect effect="spiro" id="path-effect881" is_visible="true" lpeversion="1" /><inkscape:path-effect effect="spiro" id="path-effect862" is_visible="true" lpeversion="1" /><inkscape:path-effect effect="spiro" id="path-effect851" is_visible="true" lpeversion="1" />
  <svg:style type="text/css" id="style2">
   
    .fil0 {fill:#EF7F1A;fill-rule:nonzero}
   
  </svg:style>
 <inkscape:path-effect effect="spiro" id="path-effect1214" is_visible="true" lpeversion="1" /><inkscape:path-effect effect="spiro" id="path-effect1195" is_visible="true" lpeversion="1" /><inkscape:path-effect effect="spiro" id="path-effect992" is_visible="true" lpeversion="1" /><inkscape:path-effect effect="spiro" id="path-effect1060" is_visible="true" lpeversion="1" /><inkscape:path-effect effect="spiro" id="path-effect1047" is_visible="true" lpeversion="1" /></svg:defs>
 
<svg:g id="g874"><svg:g id="path1006-5-6-2"><svg:path style="color:#000000;fill:#1a5fb4;fill-rule:nonzero;stroke-linecap:round;stroke-linejoin:round;-inkscape-stroke:none;paint-order:fill stroke markers" d="M 125.38867,450.20117 C 105.34418000000001,449.85641 85.901399,454.59296 68.480469,463.10352 C 51.105484000000004,471.59162 36.10485,483.63044 23.892578,497.75586 C -0.5144238399999992,525.98641 -12.817436,561.11426 -16.642578,595.64258 C -19.227287,618.9739099999999 -18.171067,643.47241 -11.300781,667.41406 C -4.3962903,691.4749099999999 8.3401365,714.48987 27.595703,732.6035199999999 C 43.982281,748.0183099999999 64.050904,758.8442699999999 85.679687,764.2871099999999 C 107.28958,769.7251899999999 129.85159,769.6477399999999 151.29883,764.3633099999998 C 177.53568,757.8987299999999 201.16473000000002,743.8883099999998 219.60547000000003,724.6386999999999 C 239.22884000000002,704.1545899999999 252.05808000000002,678.8101799999998 258.55664,652.3789399999998 C 268.05178,613.7598799999998 264.05666,572.7216599999998 247.48437,536.6543299999998 C 237.0363,513.9154999999998 221.46293000000003,492.84369999999984 200.44531,476.91213999999985 C 179.29145,460.8772999999999 153.24579,450.68033999999983 125.38867,450.20119999999986 L 125.38867,450.20117 M 124.35742,510.19336 C 137.87159,510.4258 152.38032,515.7682 164.20117,524.72852 C 176.15827,533.79211 186.13715,546.84553 192.96483999999998,561.70508 C 197.53723999999997,571.6562799999999 200.56083999999998,582.40094 202.16796999999997,593.3671899999999 C 198.34023999999997,583.3982299999999 192.65358999999998,574.2429699999999 185.44921999999997,566.41797 C 170.25179999999997,549.91136 150.21151999999998,540.6141299999999 129.76952999999997,537.41211 C 110.19972999999997,534.34671 89.21846799999997,536.69903 70.23437499999997,546.78125 C 65.51369599999997,549.28835 61.03163999999997,552.24058 56.85156199999997,555.58008 C 60.39682199999997,548.8185 64.50251699999997,542.5234499999999 69.28124999999997,536.99609 C 76.58047199999997,528.55339 85.38587699999997,521.62072 94.81640599999997,517.0136699999999 C 104.20098999999998,512.4290699999999 114.57314999999997,510.0250699999999 124.35741999999998,510.1933599999999 L 124.35742,510.19336 M 114.42188,596.20508 C 116.42482,596.21408 118.45844,596.3721099999999 120.48438,596.68945 C 128.91692,598.01032 136.70995,602.0637899999999 141.30859,607.05859 C 145.6296,611.7518299999999 147.91559,618.84215 147.37891000000002,623.52148 C 146.82290000000003,628.36933 142.61399000000003,635.03832 137.06641000000002,638.47266 C 131.13341000000003,642.14559 122.11916000000002,643.83794 113.52930000000002,642.43945 C 104.69727000000002,641.00154 96.43413700000002,636.28332 91.97070300000001,630.66602 C 89.71336400000001,627.82511 88.11552500000002,624.50299 87.39453100000001,621.42578 C 86.68283000000001,618.38823 86.74885800000001,615.1346 87.42969100000002,612.56836 C 88.59198800000001,608.18734 92.94417100000003,602.6567699999999 98.37695700000002,599.77148 C 102.69284400000002,597.47937 108.41303400000002,596.17716 114.42188400000002,596.20508 L 114.42188,596.20508 M 171.27148,687.66797 C 161.36714,696.42854 149.43571,703.02744 136.94335999999998,706.10547 C 124.96922999999998,709.05581 112.09258999999999,709.06354 100.32226999999997,706.10147 C 88.57083099999997,703.1442499999999 77.39177599999998,697.0700099999999 68.70703099999997,688.9002999999999 C 68.57252299999998,688.7737699999999 68.46180099999997,688.6121599999999 68.32812499999997,688.4842799999999 C 79.30617399999997,695.2234899999999 91.45334799999998,699.63551 103.88866999999996,701.6600699999999 C 125.47084999999996,705.1737899999999 148.58967999999996,701.9040099999999 168.64843999999997,689.48624 C 169.55473999999995,688.92517 170.38727999999998,688.26122 171.27147999999997,687.66788 L 171.27148,687.66797" id="path27201" /></svg:g><svg:g id="path1006-5-6"><svg:path style="color:#000000;fill:#1a5fb4;fill-rule:nonzero;stroke-linecap:round;stroke-linejoin:round;-inkscape-stroke:none;paint-order:fill stroke markers" d="M 122.8457,178.37305 C 102.80121,178.02828 83.358431,182.76484 65.9375,191.27539000000002 C 48.562515000000005,199.76350000000002 33.561882,211.80036 21.349609,225.92578000000003 C -3.0573933999999987,254.15634000000003 -15.360403999999996,289.28418000000005 -19.185547,323.8125 C -21.770257,347.14383 -20.714035,371.64429 -13.84375,395.58594 C -6.9392594,419.64679 5.797167900000002,442.66175 25.052734,460.77539 C 41.439313,476.19019000000003 61.507934,487.01615000000004 83.136719,492.45898 C 104.74661,497.89707 127.30861999999999,497.81961 148.75585999999998,492.53517999999997 C 174.99271,486.07059 198.62176,472.06017999999995 217.0625,452.81057 C 236.68587,432.32646 249.51511,406.98204999999996 256.01367,380.5508 C 265.50881,341.93174999999997 261.51369,300.89353 244.94141,264.82619 C 234.49333,242.08736 218.91996,221.01556 197.90233999999998,205.084 C 176.74847999999997,189.04917 150.70282999999998,178.85221 122.84569999999998,178.37307 L 122.8457,178.37305 M 121.81445,238.36328 C 135.32862,238.59572 149.83735,243.93812 161.6582,252.89844 C 173.6153,261.96204 183.59419,275.01741 190.42186999999998,289.87694999999997 C 194.99426999999997,299.82815999999997 198.01788,310.57282 199.62499999999997,321.53905999999995 C 195.79726999999997,311.57010999999994 190.11062999999996,302.41483999999997 182.90624999999997,294.5898399999999 C 167.70882999999998,278.08323999999993 147.66854999999998,268.78599999999994 127.22655999999998,265.58397999999994 C 107.65675999999998,262.51857999999993 86.67549999999997,264.87089999999995 67.69140599999997,274.95311999999996 C 62.97154499999997,277.45978999999994 58.490007999999975,280.40926999999994 54.31054699999997,283.74805 C 57.85536799999997,276.98796 61.960460999999974,270.69426999999996 66.73828099999997,265.16796999999997 C 74.03750399999997,256.72526999999997 82.84290799999997,249.79258999999996 92.27343699999997,245.18554999999998 C 101.65801999999996,240.60094999999998 112.03017999999997,238.19499 121.81444999999997,238.36327999999997 L 121.81445,238.36328 M 111.87890999999999,324.37695 C 113.88185999999999,324.38595000000004 115.91546999999998,324.54399 117.94140999999999,324.86133 C 126.37395,326.1822 134.16698,330.23371000000003 138.76561999999998,335.22852 C 143.08662999999999,339.92175 145.37261999999998,347.01403 144.83594,351.69336 C 144.27993,356.54121 140.07102,363.20824 134.52344,366.64258 C 128.59044,370.31552 119.57619,372.00786 110.98633,370.60937 C 102.15429999999999,369.17146 93.89116899999999,364.45325 89.42773399999999,358.83594 C 87.17039499999998,355.99504 85.57255599999999,352.67487 84.85156199999999,349.59766 C 84.13986099999998,346.56010000000003 84.20588899999998,343.30452 84.88672199999999,340.73828000000003 C 86.04901799999999,336.35726000000005 90.40120099999999,330.82865000000004 95.833987,327.94336000000004 C 100.149873,325.65124000000003 105.87006299999999,324.34903 111.878913,324.37695 L 111.87890999999999,324.37695 M 168.72852,415.83984000000004 C 158.82417,424.60042000000004 146.89274,431.19931 134.40039000000002,434.27734000000004 C 122.42626000000001,437.22769000000005 109.54963000000001,437.23542000000003 97.77929700000001,434.27334 C 86.02786100000002,431.31611000000004 74.84880800000002,425.24187 66.16406200000002,417.07217 C 66.02823600000002,416.94439000000006 65.91622800000002,416.78139000000004 65.78125000000001,416.65224 C 76.76036800000001,423.39289 88.90687200000002,427.80517000000003 101.34375000000001,429.82998 C 122.92592000000002,433.34371 146.04672000000002,430.07586999999995 166.10547000000003,417.6581 C 167.01177,417.09704 167.84431000000004,416.43308 168.72852000000003,415.83974 L 168.72852,415.83984000000004" id="path27207" /></svg:g></svg:g></svg:svg>

<svg:svg xmlns:cc="http://creativecommons.org/ns#" xmlns:dc="http://purl.org/dc/elements/1.1/" xmlns:inkscape="http://www.inkscape.org/namespaces/inkscape" xmlns:rdf="http://www.w3.org/1999/02/22-rdf-syntax-ns#" xmlns:sodipodi="http://sodipodi.sourceforge.net/DTD/sodipodi-0.dtd" xmlns:svg="http://www.w3.org/2000/svg" xml:space="preserve" width="1000" height="1000" version="1.1" style="clip-rule:evenodd;fill-rule:evenodd;image-rendering:optimizeQuality;shape-rendering:geometricPrecision;text-rendering:geometricPrecision" viewBox="0 0 1000 1000" id="svg10" sodipodi:docname="ഃ.svg" inkscape:version="1.1.1 (3bf5ae0d25, 2021-09-20)"><svg:metadata id="metadata14"><rdf:RDF><cc:Work rdf:about=""><dc:format>image/svg+xml</dc:format><dc:type rdf:resource="http://purl.org/dc/dcmitype/StillImage" /><dc:title /></cc:Work></rdf:RDF></svg:metadata><sodipodi:namedview pagecolor="#ffffff" bordercolor="#666666" borderopacity="1" objecttolerance="10" gridtolerance="10" guidetolerance="10" inkscape:pageopacity="0" inkscape:pageshadow="2" inkscape:window-width="1920" inkscape:window-height="1009" id="namedview12" showgrid="false" inkscape:zoom="0.84890884" inkscape:cx="198.4901" inkscape:cy="430.55271" inkscape:window-x="0" inkscape:window-y="0" inkscape:window-maximized="1" inkscape:current-layer="g874" showguides="true" inkscape:guide-bbox="true" inkscape:document-rotation="0" inkscape:pagecheckerboard="0"><sodipodi:guide position="0,1000" orientation="0,1" id="guide16" inkscape:label="" inkscape:locked="true" inkscape:color="rgb(0,0,255)" /><sodipodi:guide position="1763.3122,2036.1693" orientation="1000,0" id="guide18" /><sodipodi:guide position="0,200" orientation="0,1" id="guide20" inkscape:label="base" inkscape:locked="true" inkscape:color="rgb(0,0,255)" /><inkscape:grid type="xygrid" id="grid24" originx="-473.37552" originy="-489.69235" /><sodipodi:guide position="0,0" orientation="0,1" id="guide34" inkscape:label="bottom" inkscape:locked="true" inkscape:color="rgb(0,0,255)" /><sodipodi:guide position="225.05109,1693.3186" orientation="0,1" id="guide44" inkscape:label="" inkscape:locked="false" inkscape:color="rgb(0,0,255)" /><sodipodi:guide position="0,900" orientation="0,1" id="guide46" inkscape:label="" inkscape:locked="true" inkscape:color="rgb(0,0,255)" /><sodipodi:guide position="240.28117,591.11012" orientation="1,0" id="guide841" inkscape:label="width" />    </sodipodi:namedview>
 <svg:defs id="defs4"><inkscape:path-effect effect="spiro" id="path-effect909" is_visible="true" lpeversion="1" /><inkscape:path-effect effect="spiro" id="path-effect869" is_visible="true" lpeversion="1" /><inkscape:path-effect effect="spiro" id="path-effect881" is_visible="true" lpeversion="1" /><inkscape:path-effect effect="spiro" id="path-effect862" is_visible="true" lpeversion="1" /><inkscape:path-effect effect="spiro" id="path-effect851" is_visible="true" lpeversion="1" />
  <svg:style type="text/css" id="style2">
   
    .fil0 {fill:#EF7F1A;fill-rule:nonzero}
   
  </svg:style>
 <inkscape:path-effect effect="spiro" id="path-effect1214" is_visible="true" lpeversion="1" /><inkscape:path-effect effect="spiro" id="path-effect1195" is_visible="true" lpeversion="1" /><inkscape:path-effect effect="spiro" id="path-effect992" is_visible="true" lpeversion="1" /><inkscape:path-effect effect="spiro" id="path-effect1060" is_visible="true" lpeversion="1" /><inkscape:path-effect effect="spiro" id="path-effect1047" is_visible="true" lpeversion="1" /></svg:defs>
 
<svg:g id="g874"><svg:g id="path1006-5-6-2"><svg:path style="color:#000000;fill:#1a5fb4;fill-rule:nonzero;stroke-linecap:round;stroke-linejoin:round;-inkscape-stroke:none" d="m 125.38867,450.20117 c -20.04449,-0.34476 -39.487271,4.39179 -56.908201,12.90235 -17.374985,8.4881 -32.375619,20.52692 -44.587891,34.65234 -24.40700184,28.23055 -36.710014,63.3584 -40.535156,97.88672 -2.584709,23.33133 -1.528489,47.82983 5.341797,71.77148 6.9044907,24.06085 19.6409175,47.07581 38.896484,65.18946 16.386578,15.41479 36.455201,26.24075 58.083984,31.68359 21.609893,5.43808 44.171903,5.36063 65.619143,0.0762 26.23685,-6.46458 49.8659,-20.475 68.30664,-39.72461 19.62337,-20.48411 32.45261,-45.82852 38.95117,-72.25976 9.49514,-38.61906 5.50002,-79.65728 -11.07227,-115.72461 -10.44807,-22.73883 -26.02144,-43.81063 -47.03906,-59.74219 -21.15386,-16.03484 -47.19952,-26.2318 -75.05664,-26.71094 z m -1.03125,59.99219 c 13.51417,0.23244 28.0229,5.57484 39.84375,14.53516 11.9571,9.06359 21.93598,22.11701 28.76367,36.97656 4.5724,9.9512 7.596,20.69586 9.20313,31.66211 -3.82773,-9.96896 -9.51438,-19.12422 -16.71875,-26.94922 -15.19742,-16.50661 -35.2377,-25.80384 -55.67969,-29.00586 -19.5698,-3.0654 -40.551062,-0.71308 -59.535155,9.36914 -4.720679,2.5071 -9.202735,5.45933 -13.382813,8.79883 3.54526,-6.76158 7.650955,-13.05663 12.429688,-18.58399 7.299222,-8.4427 16.104627,-15.37537 25.535156,-19.98242 9.384584,-4.5846 19.756744,-6.9886 29.541014,-6.82031 z m -9.93554,86.01172 c 2.00294,0.009 4.03656,0.16703 6.0625,0.48437 8.43254,1.32087 16.22557,5.37434 20.82421,10.36914 4.32101,4.69324 6.607,11.78356 6.07032,16.46289 -0.55601,4.84785 -4.76492,11.51684 -10.3125,14.95118 -5.933,3.67293 -14.94725,5.36528 -23.53711,3.96679 -8.83203,-1.43791 -17.095163,-6.15613 -21.558597,-11.77343 -2.257339,-2.84091 -3.855178,-6.16303 -4.576172,-9.24024 -0.711701,-3.03755 -0.645673,-6.29118 0.03516,-8.85742 1.162297,-4.38102 5.51448,-9.91159 10.947266,-12.79688 4.315887,-2.29211 10.036077,-3.59432 16.044927,-3.5664 z m 56.8496,91.46289 c -9.90434,8.76057 -21.83577,15.35947 -34.32812,18.4375 -11.97413,2.95034 -24.85077,2.95807 -36.62109,-0.004 -11.751439,-2.95722 -22.930494,-9.03146 -31.615239,-17.20117 -0.134508,-0.12653 -0.24523,-0.28814 -0.378906,-0.41602 10.978049,6.73921 23.125223,11.15123 35.560545,13.17579 21.58218,3.51372 44.70101,0.24394 64.75977,-12.17383 0.9063,-0.56107 1.73884,-1.22502 2.62304,-1.81836 z" id="path27113" /></svg:g><svg:g id="path1006-5-6"><svg:path style="color:#000000;fill:#1a5fb4;fill-rule:nonzero;stroke-linecap:round;stroke-linejoin:round;-inkscape-stroke:none" d="m 122.8457,178.37305 c -20.04449,-0.34477 -39.487269,4.39179 -56.9082,12.90234 -17.374985,8.48811 -32.375618,20.52497 -44.587891,34.65039 -24.4070024,28.23056 -36.710013,63.3584 -40.535156,97.88672 -2.58471,23.33133 -1.528488,47.83179 5.341797,71.77344 6.9044906,24.06085 19.6409179,47.07581 38.896484,65.18945 16.386579,15.4148 36.4552,26.24076 58.083985,31.68359 21.609891,5.43809 44.171901,5.36063 65.619141,0.0762 26.23685,-6.46459 49.8659,-20.475 68.30664,-39.72461 19.62337,-20.48411 32.45261,-45.82852 38.95117,-72.25977 9.49514,-38.61905 5.50002,-79.65727 -11.07226,-115.72461 -10.44808,-22.73883 -26.02145,-43.81063 -47.03907,-59.74219 -21.15386,-16.03483 -47.19951,-26.23179 -75.05664,-26.71093 z m -1.03125,59.99023 c 13.51417,0.23244 28.0229,5.57484 39.84375,14.53516 11.9571,9.0636 21.93599,22.11897 28.76367,36.97851 4.5724,9.95121 7.59601,20.69587 9.20313,31.66211 -3.82773,-9.96895 -9.51437,-19.12422 -16.71875,-26.94922 -15.19742,-16.5066 -35.2377,-25.80384 -55.67969,-29.00586 -19.5698,-3.0654 -40.55106,-0.71308 -59.535154,9.36914 -4.719861,2.50667 -9.201398,5.45615 -13.380859,8.79493 3.544821,-6.76009 7.649914,-13.05378 12.427734,-18.58008 7.299223,-8.4427 16.104627,-15.37538 25.535156,-19.98242 9.384583,-4.5846 19.756743,-6.99056 29.541013,-6.82227 z m -9.93554,86.01367 c 2.00295,0.009 4.03656,0.16704 6.0625,0.48438 8.43254,1.32087 16.22557,5.37238 20.82421,10.36719 4.32101,4.69323 6.607,11.78551 6.07032,16.46484 -0.55601,4.84785 -4.76492,11.51488 -10.3125,14.94922 -5.933,3.67294 -14.94725,5.36528 -23.53711,3.96679 -8.83203,-1.43791 -17.095161,-6.15612 -21.558596,-11.77343 -2.257339,-2.8409 -3.855178,-6.16107 -4.576172,-9.23828 -0.711701,-3.03756 -0.645673,-6.29314 0.03516,-8.85938 1.162296,-4.38102 5.514479,-9.90963 10.947265,-12.79492 4.315886,-2.29212 10.036076,-3.59433 16.044926,-3.56641 z m 56.84961,91.46289 c -9.90435,8.76058 -21.83578,15.35947 -34.32813,18.4375 -11.97413,2.95035 -24.85076,2.95808 -36.621093,-0.004 -11.751436,-2.95723 -22.930489,-9.03147 -31.615235,-17.20117 -0.135826,-0.12778 -0.247834,-0.29078 -0.382812,-0.41993 10.979118,6.74065 23.125622,11.15293 35.5625,13.17774 21.58217,3.51373 44.70297,0.24589 64.76172,-12.17188 0.9063,-0.56106 1.73884,-1.22502 2.62305,-1.81836 z" id="path27119" /></svg:g></svg:g></svg:svg>
